X:321
T:Sir Roger de Coverly
R: slipjig
M:9/8
L:1/8
S:Thomas Hardy manuscript
K:D
(3A/B/c/)|d2 d d2 B AFD| B2 e efd cBA| d2 d d2 B ABc| d2 d ded cBA:|
AFA BGB AFD| Bcd efd cBA| AFA BGB cAc| d2 d ded cBA:|
agf gfe fed | cde efg gfe| agf gfe fed| d2 d ded cBA:|

